X:820
T: Derrylee
S: B.Breathnach: "Ceol Rince na hEireann" II/241 (gan ainm)
Z: B.Black
L: 1/8
M: 4/4
R: reel
K: Ador
B|(3cBA eA (3cBA eA|(3cBA eA dB G2|Beee d2 ed|BGGG BcdB|
(3cBA eA (3cBA eA|(3cBA eA dBGA|Beee d2 ed|BGGG Bcd ||
B|(3cBA BA a2 af|gfed (3efg a2|Abcd eggg|BGGG BcdB|
(3cBA BA a2 af|gfed efge|ff/f/ fd ee/e/ ed|BGGG Bcd ||

